X:1
T:Where were you all the day
M:3/4
L:1/8
K:Bb
 dc| B2A-G F2| A2- d2d-c| B2 G2 G-B/2-A/2| G4 Bc| d2 g2f-e| d2- g2G-=B|\
 c2c-de-c| d4 Bc| d2 f2f-e| d2 G2 GA/2-=B/2| c2c-de-f| d4 dc| B2A-G G2|\
 A2 d2d-c| B2 G2 G-B/2-A/2| G4||
